X:2695
T:Carraroe jig, The
S:F+J
R:Jig
O:Ireland
M:6/8
K:D
DED F2A|dfe d2A|BAF Adf|afd e3|\
DED F2A|dfe d2A|B/c/dB AFA|dAF E2:|*
|:D|\
dfa afa|bge edB|dfa afa|bge e3|\
dfa afa|bge edB|d2B AFA|dAF E2:|


